Icons/10RadioButton.svg

<svg viewBox="0 0 16 16" xmlns="http://www.w3.org/2000/svg">
  <path d="m3.1671667 4.1661666c2.1671666-2.1661666 6.5015916-2.1661666 8.6672123-.0005458 2.165621 2.1656209 2.165621 6.4989822-.001077 8.6666812-2.1666989 2.167698-6.4978654 2.167698-8.6655837-.00002-2.1677183-2.167719-2.1677183-6.4999487-.0005516-8.6661154z" fill="#fff" stroke="#333"/>
  <path d="m5.1671667 6.1661666c1.1671666-1.1661666 3.5016424-1.1661666 4.6672379-.0005712 1.1655954 1.1655955 1.1655954 3.4988809-.0011664 4.6666426-1.1667619 1.167762-3.4977562 1.167762-4.6654972.000021s-1.167741-3.4999257-.0005743-4.6660924z" fill="#333"/>
</svg>

<?xml version="1.0" encoding="UTF-8" standalone="no"?>
<svg
   xmlns:dc="http://purl.org/dc/elements/1.1/"
   xmlns:cc="http://creativecommons.org/ns#"
   xmlns:rdf="http://www.w3.org/1999/02/22-rdf-syntax-ns#"
   xmlns:svg="http://www.w3.org/2000/svg"
   xmlns="http://www.w3.org/2000/svg"
   xmlns:sodipodi="http://sodipodi.sourceforge.net/DTD/sodipodi-0.dtd"
   xmlns:inkscape="http://www.inkscape.org/namespaces/inkscape"
   viewBox="0 0 16 16"
   version="1.1"
   id="svg10"
   sodipodi:docname="10RadioButton.svg"
   inkscape:version="0.92.4 (5da689c313, 2019-01-14)"
   inkscape:export-filename="C:\Users\Kalama\Documents\GitHub\CodeLab-bb\Icons\10RadioButton.32.png"
   inkscape:export-xdpi="192"
   inkscape:export-ydpi="192"><metadata
   id="metadata16">
  <rdf:RDF>
    <cc:Work
       rdf:about="">
      <dc:format>image/svg+xml</dc:format>
      <dc:type
         rdf:resource="http://purl.org/dc/dcmitype/StillImage" />
    </cc:Work>
  </rdf:RDF>
</metadata>
<defs
   id="defs14">
  <inkscape:path-effect
     effect="bspline"
     id="path-effect836"
     is_visible="true"
     weight="33.333333"
     steps="2"
     helper_size="0"
     apply_no_weight="true"
     apply_with_weight="true"
     only_selected="false" />
  <inkscape:path-effect
     effect="bspline"
     id="path-effect832"
     is_visible="true"
     weight="33.333333"
     steps="2"
     helper_size="0"
     apply_no_weight="true"
     apply_with_weight="true"
     only_selected="false" />
  <inkscape:path-effect
     effect="bspline"
     id="path-effect855"
     is_visible="true"
     weight="33.333333"
     steps="2"
     helper_size="0"
     apply_no_weight="true"
     apply_with_weight="true"
     only_selected="false" />
  <inkscape:path-effect
     effect="bspline"
     id="path-effect851"
     is_visible="true"
     weight="33.333333"
     steps="2"
     helper_size="0"
     apply_no_weight="true"
     apply_with_weight="true"
     only_selected="false" />
  <inkscape:path-effect
     effect="bspline"
     id="path-effect847"
     is_visible="true"
     weight="33.333333"
     steps="2"
     helper_size="0"
     apply_no_weight="true"
     apply_with_weight="true"
     only_selected="false" />
</defs>
<sodipodi:namedview
   pagecolor="#ffffff"
   bordercolor="#666666"
   borderopacity="1"
   objecttolerance="10"
   gridtolerance="10"
   guidetolerance="10"
   inkscape:pageopacity="0"
   inkscape:pageshadow="2"
   inkscape:window-width="944"
   inkscape:window-height="1002"
   id="namedview12"
   showgrid="false"
   showguides="false"
   inkscape:zoom="32"
   inkscape:cx="7.3312397"
   inkscape:cy="7.5001271"
   inkscape:window-x="0"
   inkscape:window-y="0"
   inkscape:window-maximized="0"
   inkscape:current-layer="svg10" />










     /&amp;gt;
 <path
   style="fill:#ffffff;stroke:#333333;stroke-width:1px;stroke-linecap:butt;stroke-linejoin:miter;stroke-opacity:1;fill-opacity:1"
   d="M 3.1671667,4.1661666 C 5.3343333,2 9.6687583,2 11.834379,4.1656208 14,6.3312417 14,10.664603 11.833302,12.832302 9.6666031,15 5.3354366,15 3.1677183,12.832282 1,10.664563 1,6.3323333 3.1671667,4.1661666 Z"
   id="path830"
   inkscape:connector-curvature="0"
   inkscape:path-effect="#path-effect832"
   inkscape:original-d="M 1,2 C 5.3343333,1.999 9.6687583,1.999 14,2 14.001,6.3312417 14.001,10.664603 14,15 9.6666031,14.999 5.3354366,14.999 1,15 1.001,10.664563 1.001,6.3323333 1,2 Z"
   sodipodi:nodetypes="ccccc" />
<path
   style="fill:#333333;stroke:none;stroke-width:1px;stroke-linecap:butt;stroke-linejoin:miter;stroke-opacity:1;fill-opacity:1"
   d="M 5.1671667,6.1661666 C 6.3343333,5 8.6688091,5 9.8344046,6.1655954 11,7.3311909 11,9.6644763 9.8332382,10.832238 8.6664763,12 6.335482,12 5.167741,10.832259 4,9.664518 4,7.3323333 5.1671667,6.1661666 Z"
   id="path834"
   inkscape:connector-curvature="0"
   inkscape:path-effect="#path-effect836"
   inkscape:original-d="m 4,5 c 2.3343333,-0.001 4.6688091,-0.001 7,0 10e-4,2.3311909 10e-4,4.6644763 0,7 C 8.6664763,11.999 6.335482,11.999 4,12 4.001,9.664518 4.001,7.3323333 4,5 Z"
   sodipodi:nodetypes="ccccc" />
</svg>
